logos/logo-icon.svg

<?xml version="1.0" encoding="UTF-8"?><svg xmlns="http://www.w3.org/2000/svg" viewBox="0 0 640.45 636.77"><defs><style>.d{fill:#fb923c;}.e{fill:#191d27;}</style></defs><g id="a"/><g id="b"><g id="c"><path class="d" d="M342.75,6.03l223.01,128.76c11.19,6.46,19.06,17.42,21.61,30.09l52.19,259.13c3.81,18.94-4.88,38.2-21.61,47.86l-275.19,158.89c-13.92,8.04-31.08,8.04-45,0L22.5,471.83c-16.73-9.66-25.43-28.92-21.61-47.86L53.08,164.89c2.55-12.67,10.42-23.62,21.61-30.08L297.75,6.03c13.92-8.04,31.08-8.04,45,0Z"/><path class="e" d="M491.4,223.66l-158.67,91.61c-7.74,4.47-17.27,4.47-25,0l-158.67-91.61c-16.67-9.62-16.67-33.68,0-43.3l158.67-91.6c7.73-4.47,17.26-4.47,25,0l158.67,91.6c16.67,9.62,16.67,33.68,0,43.3Z"/><path class="d" d="M434.54,195.62c-.69-.4-1.61-.7-2.7-.82l-101.05-11.13c-.21-.02-.39-.08-.54-.16-.17-.1-.29-.24-.31-.39l-5.01-45.92c-.09-.79-.65-1.44-1.49-1.93-1.89-1.09-5.16-1.28-7.34,0l-24.73,14.37c-1.05,.61-1.6,1.46-1.5,2.32l3.64,30.08,3.49,19.84c.03,.18-.07,.35-.3,.48l-.57,.33c-.4,.23-1.06,.23-1.46,0l-43.79-25.28c-2.02-1.17-5.3-1.16-7.31,0l-23.5,13.66c-2.01,1.17-2,3.06,.02,4.23l107.85,62.27c2.02,1.17,5.29,1.17,7.31,0l23.5-13.66c2.01-1.17,2.01-3.07-.02-4.24l-29.72-17.16c-.18-.1-.29-.24-.3-.39l-1.53-14.68c-.04-.39,.57-.7,1.23-.62l75.6,8.88c1.69,.2,3.45-.11,4.68-.82l25.84-15.02c2.15-1.25,1.88-3.14-.02-4.25"/><g><path class="e" d="M302.54,364.93v136.77c0,19.25-20.83,31.27-37.5,21.65l-168.24-97.13c-9.29-5.37-14.13-16.07-12.01-26.59l24.68-122.53c3.38-16.76,22.2-25.26,37.01-16.71l143.56,82.89c7.73,4.47,12.5,12.72,12.5,21.65Z"/><path class="e" d="M337.92,364.96v136.77c0,19.25,20.83,31.27,37.5,21.65l168.24-97.13c9.29-5.37,14.13-16.07,12.01-26.59l-24.68-122.53c-3.38-16.76-22.2-25.26-37.01-16.71l-143.56,82.89c-7.73,4.47-12.5,12.72-12.5,21.65Z"/></g></g></g></svg>

<svg xmlns="http://www.w3.org/2000/svg" viewBox="0 0 640.45 636.77"><defs><style>.cls-1{fill:#fb923c;}.cls-2{fill:#191d29;}.cls-3{fill:#191d27;}</style></defs><g id="Layer_2" data-name="Layer 2"><g id="Ebene_4" data-name="Ebene 4"><path class="cls-1" d="M342.75,6l223,128.76a45,45,0,0,1,21.61,30.08L639.56,424A45,45,0,0,1,618,471.85L342.76,630.74a45,45,0,0,1-45,0L22.5,471.83A45,45,0,0,1,.89,424L53.08,164.89a45,45,0,0,1,21.61-30.08L297.75,6A45,45,0,0,1,342.75,6Z"/><path class="cls-2" d="M491.4,223.66,332.73,315.27a25,25,0,0,1-25,0L149.06,223.66a25,25,0,0,1,0-43.3l158.67-91.6a25,25,0,0,1,25,0l158.67,91.6A25,25,0,0,1,491.4,223.66Z"/><path class="cls-1" d="M434.54,195.62a7,7,0,0,0-2.7-.81l-101-11.13a1.23,1.23,0,0,1-.54-.17.56.56,0,0,1-.31-.39l-5-45.92a2.65,2.65,0,0,0-1.49-1.92,8,8,0,0,0-7.34,0l-24.72,14.37a2.48,2.48,0,0,0-1.5,2.31L293.53,182,297,201.87a.49.49,0,0,1-.29.49l-.58.33a1.58,1.58,0,0,1-1.45,0L250.91,177.4a8.08,8.08,0,0,0-7.31,0l-23.5,13.65c-2,1.17-2,3.07,0,4.24L328,257.56a8.05,8.05,0,0,0,7.31,0l23.5-13.65c2-1.17,2-3.07,0-4.24L329,222.51a.52.52,0,0,1-.3-.39l-1.53-14.68c0-.39.57-.7,1.23-.62L404,215.7a7.8,7.8,0,0,0,4.68-.82l25.84-15c2.15-1.25,1.88-3.15,0-4.25"/><path class="cls-3" d="M302.54,364.93V501.71A25,25,0,0,1,265,523.36L96.8,426.22a25,25,0,0,1-12-26.58l24.67-122.53a25,25,0,0,1,37-16.72L290,343.28A25,25,0,0,1,302.54,364.93Z"/><path class="cls-3" d="M337.92,365V501.73a25,25,0,0,0,37.5,21.65l168.24-97.13a25,25,0,0,0,12-26.59L531,277.13a25,25,0,0,0-37-16.71L350.42,343.31A25,25,0,0,0,337.92,365Z"/></g></g></svg>
